Adwaita++-Dark/actions/16/map-gnomonic.svg

<svg height="16" viewBox="0 0 16 16" width="16" xmlns="http://www.w3.org/2000/svg">
  <path d="m0 0v16h16v-16zm1 1h4v4.7070312a7 3 0 0 1 -4-2.7070312zm5 0h4v4.8730469a7 3 0 0 1 -2 .1269531 7 3 0 0 1 -2-.1269531zm5 0h4v2a7 3 0 0 1 -4 2.7070312zm-10 3.9277344a8 4 0 0 0 4 1.7773437v2.5898438a8 4 0 0 0 -4 1.7773441zm14 .0078125v6.1289061a8 4 0 0 0 -4-1.7695311v-2.5898438a8 4 0 0 0 4-1.7695312zm-9 1.9316406a8 4 0 0 0 2 .1328125 8 4 0 0 0 2-.1308594v2.2617188a8 4 0 0 0 -2-.1308594 8 4 0 0 0 -2 .1328125zm2 3.1328125a7 3 0 0 1 2 .126953v4.873047h-4v-4.873047a7 3 0 0 1 2-.126953zm-3 .292969v4.707031h-4v-2a7 3 0 0 1 4-2.707031zm6 0a7 3 0 0 1 4 2.707031v2h-4z" fill="#e6ddff"/>
</svg>

<svg xmlns="http://www.w3.org/2000/svg" width="16" height="16" viewBox="0 0 16 16">
 <defs>
  <style id="current-color-scheme" type="text/css">
   .ColorScheme-Text { color:#E6DDFF; } .ColorScheme-Highlight { color:#4285f4; }
  </style>
 </defs>
 <path style="fill:currentColor" class="ColorScheme-Text" d="M 0 0 L 0 16 L 16 16 L 16 0 L 0 0 z M 1 1 L 5 1 L 5 5.7070312 A 7 3 0 0 1 1 3 L 1 1 z M 6 1 L 10 1 L 10 5.8730469 A 7 3 0 0 1 8 6 A 7 3 0 0 1 6 5.8730469 L 6 1 z M 11 1 L 15 1 L 15 3 A 7 3 0 0 1 11 5.7070312 L 11 1 z M 1 4.9277344 A 8 4 0 0 0 5 6.7050781 L 5 9.2949219 A 8 4 0 0 0 1 11.072266 L 1 4.9277344 z M 15 4.9355469 L 15 11.064453 A 8 4 0 0 0 11 9.2949219 L 11 6.7050781 A 8 4 0 0 0 15 4.9355469 z M 6 6.8671875 A 8 4 0 0 0 8 7 A 8 4 0 0 0 10 6.8691406 L 10 9.1308594 A 8 4 0 0 0 8 9 A 8 4 0 0 0 6 9.1328125 L 6 6.8671875 z M 8 10 A 7 3 0 0 1 10 10.126953 L 10 15 L 6 15 L 6 10.126953 A 7 3 0 0 1 8 10 z M 5 10.292969 L 5 15 L 1 15 L 1 13 A 7 3 0 0 1 5 10.292969 z M 11 10.292969 A 7 3 0 0 1 15 13 L 15 15 L 11 15 L 11 10.292969 z"/>
</svg>
